X:1
T:Arabesque No. 1
C:Claude Debussy
M:4/4
L:1/8
Q:1/4=116
K:E
(3EGA (3EGA B2 A2 | (3EGA (3EGA E4 | (3EGA (3EGA B2 A2 | (3GBc (3GBc E4 |
(3EGA (3EGA c2 B2 | (3ABc (3ABc A4 | (3EGA (3EGA BA GE | (3EGA (3EGA E4 |
(3EGA (3EGA B2 A2 | (3GBc (3GBc E3 G | (3EGA (3EGA BA GE | E8 |]
